documentation/public/assets/images/heading.svg

<svg width="108" height="26" viewBox="0 0 108 26" fill="none" xmlns="http://www.w3.org/2000/svg">
<path d="M0.848 20V0.399999H4.544V8.492H11.824V0.399999H15.52V20H11.824V11.852H4.544V20H0.848ZM25.663 20.392C24.2817 20.392 23.059 20.1027 21.995 19.524C20.9497 18.9267 20.1283 18.096 19.531 17.032C18.9523 15.9493 18.663 14.68 18.663 13.224V12.888C18.663 11.432 18.9523 10.172 19.531 9.108C20.1097 8.02533 20.9217 7.19467 21.967 6.616C23.0123 6.01867 24.2257 5.72 25.607 5.72C26.9697 5.72 28.155 6.028 29.163 6.644C30.171 7.24133 30.955 8.08133 31.515 9.164C32.075 10.228 32.355 11.4693 32.355 12.888V14.092H22.247C22.2843 15.044 22.639 15.8187 23.311 16.416C23.983 17.0133 24.8043 17.312 25.775 17.312C26.7643 17.312 27.4923 17.0973 27.959 16.668C28.4257 16.2387 28.7803 15.7627 29.023 15.24L31.907 16.752C31.6457 17.2373 31.263 17.7693 30.759 18.348C30.2737 18.908 29.6203 19.3933 28.799 19.804C27.9777 20.196 26.9323 20.392 25.663 20.392ZM22.275 11.46H28.771C28.6963 10.6573 28.3697 10.0133 27.791 9.528C27.231 9.04267 26.4937 8.8 25.579 8.8C24.627 8.8 23.871 9.04267 23.311 9.528C22.751 10.0133 22.4057 10.6573 22.275 11.46ZM39.8072 20.392C38.8178 20.392 37.9312 20.224 37.1472 19.888C36.3632 19.5333 35.7378 19.0293 35.2712 18.376C34.8232 17.704 34.5992 16.892 34.5992 15.94C34.5992 14.988 34.8232 14.1947 35.2712 13.56C35.7378 12.9067 36.3725 12.4213 37.1752 12.104C37.9965 11.768 38.9298 11.6 39.9752 11.6H43.7832V10.816C43.7832 10.1627 43.5778 9.63067 43.1672 9.22C42.7565 8.79067 42.1032 8.576 41.2072 8.576C40.3298 8.576 39.6765 8.78133 39.2472 9.192C38.8178 9.584 38.5378 10.0973 38.4072 10.732L35.1592 9.64C35.3832 8.93067 35.7378 8.28667 36.2232 7.708C36.7272 7.11067 37.3898 6.63467 38.2112 6.28C39.0512 5.90667 40.0685 5.72 41.2632 5.72C43.0925 5.72 44.5392 6.17733 45.6032 7.092C46.6672 8.00667 47.1992 9.332 47.1992 11.068V16.248C47.1992 16.808 47.4605 17.088 47.9832 17.088H49.1032V20H46.7512C46.0605 20 45.4912 19.832 45.0432 19.496C44.5952 19.16 44.3712 18.712 44.3712 18.152V18.124H43.8392C43.7645 18.348 43.5965 18.6467 43.3352 19.02C43.0738 19.3747 42.6632 19.692 42.1032 19.972C41.5432 20.252 40.7778 20.392 39.8072 20.392ZM40.4232 17.536C41.4125 17.536 42.2152 17.2653 42.8312 16.724C43.4658 16.164 43.7832 15.4267 43.7832 14.512V14.232H40.2272C39.5738 14.232 39.0605 14.372 38.6872 14.652C38.3138 14.932 38.1272 15.324 38.1272 15.828C38.1272 16.332 38.3232 16.7427 38.7152 17.06C39.1072 17.3773 39.6765 17.536 40.4232 17.536ZM57.0092 20.392C55.9079 20.392 54.8719 20.1213 53.9012 19.58C52.9492 19.02 52.1839 18.208 51.6052 17.144C51.0266 16.08 50.7372 14.792 50.7372 13.28V12.832C50.7372 11.32 51.0266 10.032 51.6052 8.968C52.1839 7.904 52.9492 7.10133 53.9012 6.56C54.8532 6 55.8892 5.72 57.0092 5.72C57.8492 5.72 58.5492 5.82267 59.1092 6.028C59.6879 6.21467 60.1546 6.45733 60.5092 6.756C60.8639 7.05467 61.1346 7.372 61.3212 7.708H61.8252V0.399999H65.3532V20H61.8812V18.32H61.3772C61.0599 18.8427 60.5652 19.3187 59.8932 19.748C59.2399 20.1773 58.2786 20.392 57.0092 20.392ZM58.0732 17.312C59.1559 17.312 60.0612 16.9667 60.7892 16.276C61.5172 15.5667 61.8812 14.54 61.8812 13.196V12.916C61.8812 11.572 61.5172 10.5547 60.7892 9.864C60.0799 9.15467 59.1746 8.8 58.0732 8.8C56.9906 8.8 56.0852 9.15467 55.3572 9.864C54.6292 10.5547 54.2652 11.572 54.2652 12.916V13.196C54.2652 14.54 54.6292 15.5667 55.3572 16.276C56.0852 16.9667 56.9906 17.312 58.0732 17.312ZM69.2647 20V6.112H72.7927V20H69.2647ZM71.0287 4.488C70.394 4.488 69.8527 4.28267 69.4047 3.872C68.9754 3.46133 68.7607 2.92 68.7607 2.248C68.7607 1.576 68.9754 1.03467 69.4047 0.623999C69.8527 0.213332 70.394 0.0079987 71.0287 0.0079987C71.682 0.0079987 72.2234 0.213332 72.6527 0.623999C73.082 1.03467 73.2967 1.576 73.2967 2.248C73.2967 2.92 73.082 3.46133 72.6527 3.872C72.2234 4.28267 71.682 4.488 71.0287 4.488ZM76.7022 20V6.112H80.1742V7.932H80.6782C80.9022 7.44667 81.3222 6.98933 81.9382 6.56C82.5542 6.112 83.4875 5.888 84.7382 5.888C85.8209 5.888 86.7635 6.14 87.5662 6.644C88.3875 7.12933 89.0222 7.81067 89.4702 8.688C89.9182 9.54667 90.1422 10.5547 90.1422 11.712V20H86.6142V11.992C86.6142 10.9467 86.3529 10.1627 85.8302 9.64C85.3262 9.11733 84.5982 8.856 83.6462 8.856C82.5635 8.856 81.7235 9.22 81.1262 9.948C80.5289 10.6573 80.2302 11.656 80.2302 12.944V20H76.7022ZM93.2841 13.112V12.664C93.2841 11.208 93.5734 9.96667 94.1521 8.94C94.7308 7.89467 95.4961 7.10133 96.4481 6.56C97.4188 6 98.4734 5.72 99.6121 5.72C100.881 5.72 101.843 5.944 102.496 6.392C103.149 6.84 103.625 7.30667 103.924 7.792H104.428V6.112H107.9V22.464C107.9 23.416 107.62 24.172 107.06 24.732C106.5 25.3107 105.753 25.6 104.82 25.6H95.5241V22.52H103.588C104.111 22.52 104.372 22.24 104.372 21.68V18.068H103.868C103.681 18.3667 103.42 18.6747 103.084 18.992C102.748 19.2907 102.3 19.5427 101.74 19.748C101.18 19.9533 100.471 20.056 99.6121 20.056C98.4734 20.056 97.4188 19.7853 96.4481 19.244C95.4961 18.684 94.7308 17.8907 94.1521 16.864C93.5734 15.8187 93.2841 14.568 93.2841 13.112ZM100.62 16.976C101.703 16.976 102.608 16.6307 103.336 15.94C104.064 15.2493 104.428 14.2787 104.428 13.028V12.748C104.428 11.4787 104.064 10.508 103.336 9.836C102.627 9.14533 101.721 8.8 100.62 8.8C99.5374 8.8 98.6321 9.14533 97.9041 9.836C97.1761 10.508 96.8121 11.4787 96.8121 12.748V13.028C96.8121 14.2787 97.1761 15.2493 97.9041 15.94C98.6321 16.6307 99.5374 16.976 100.62 16.976Z" fill="black"/>
</svg>

<svg width="108" height="26" fill="none" xmlns="http://www.w3.org/2000/svg"><path d="M.85 20V.4h3.7v8.1h7.27V.4h3.7V20h-3.7v-8.15H4.54V20H.84Zm24.81.4a7.5 7.5 0 0 1-3.66-.88 6.45 6.45 0 0 1-2.47-2.49 7.96 7.96 0 0 1-.87-3.8v-.34c0-1.46.3-2.72.87-3.78a6.03 6.03 0 0 1 2.44-2.5 7.2 7.2 0 0 1 3.64-.89c1.36 0 2.55.3 3.55.92 1.01.6 1.8 1.44 2.36 2.52a7.9 7.9 0 0 1 .83 3.73v1.2h-10.1c.03.95.39 1.73 1.06 2.33.67.6 1.5.9 2.46.9 1 0 1.72-.22 2.19-.65.47-.43.82-.9 1.06-1.43l2.89 1.51a9 9 0 0 1-1.15 1.6 6.25 6.25 0 0 1-1.96 1.45c-.82.4-1.87.6-3.14.6Zm-3.39-8.94h6.5c-.07-.8-.4-1.45-.98-1.93a3.26 3.26 0 0 0-2.21-.73c-.95 0-1.7.24-2.27.73-.56.48-.9 1.13-1.04 1.93Zm17.54 8.93a6.7 6.7 0 0 1-2.66-.5 4.56 4.56 0 0 1-1.88-1.51 4.3 4.3 0 0 1-.67-2.44 4 4 0 0 1 .67-2.38 4.15 4.15 0 0 1 1.9-1.46c.83-.33 1.76-.5 2.8-.5h3.81v-.78c0-.66-.2-1.19-.61-1.6-.41-.43-1.07-.64-1.96-.64-.88 0-1.53.2-1.96.61-.43.4-.71.9-.84 1.54l-3.25-1.09a5.29 5.29 0 0 1 3.05-3.36 7.49 7.49 0 0 1 3.05-.56c1.83 0 3.28.46 4.34 1.37 1.07.92 1.6 2.24 1.6 3.98v5.18c0 .56.26.84.78.84h1.12V20h-2.35c-.69 0-1.26-.17-1.7-.5a1.6 1.6 0 0 1-.68-1.35v-.03h-.53c-.08.23-.24.53-.5.9-.27.35-.68.67-1.24.95a5.2 5.2 0 0 1-2.3.42Zm.61-2.85c1 0 1.8-.27 2.41-.82.64-.56.95-1.3.95-2.2v-.29h-3.55a2.5 2.5 0 0 0-1.54.42c-.38.28-.56.67-.56 1.18 0 .5.2.91.59 1.23.39.32.96.48 1.7.48Zm16.59 2.85c-1.1 0-2.14-.27-3.1-.81a6.16 6.16 0 0 1-2.3-2.44 7.99 7.99 0 0 1-.87-3.86v-.45c0-1.51.29-2.8.87-3.86A6.02 6.02 0 0 1 57 5.72c.84 0 1.54.1 2.1.3.58.2 1.04.44 1.4.74.35.3.62.61.81.95h.5V.4h3.53V20h-3.47v-1.68h-.5c-.32.52-.81 1-1.49 1.43-.65.43-1.61.64-2.88.64Zm1.06-3.08a3.8 3.8 0 0 0 2.72-1.03c.73-.71 1.1-1.74 1.1-3.08v-.28c0-1.35-.37-2.37-1.1-3.06a3.68 3.68 0 0 0-2.72-1.06c-1.08 0-1.98.35-2.71 1.06-.73.7-1.1 1.71-1.1 3.06v.28c0 1.34.37 2.37 1.1 3.08a3.8 3.8 0 0 0 2.71 1.03ZM69.27 20V6.11h3.52V20h-3.53Zm1.76-15.51c-.64 0-1.18-.2-1.63-.62a2.14 2.14 0 0 1-.64-1.62A2.14 2.14 0 0 1 71.03 0a2.14 2.14 0 0 1 2.27 2.24 2.14 2.14 0 0 1-2.27 2.24ZM76.7 20V6.11h3.47v1.82h.5c.23-.48.65-.94 1.27-1.37a4.76 4.76 0 0 1 2.8-.67 5.2 5.2 0 0 1 4.73 2.8c.45.86.67 1.86.67 3.02V20h-3.53v-8c0-1.05-.26-1.84-.78-2.36-.5-.52-1.23-.78-2.18-.78-1.09 0-1.93.36-2.52 1.09-.6.7-.9 1.7-.9 3V20H76.7Zm16.58-6.89v-.45c0-1.45.3-2.7.87-3.72a6 6 0 0 1 2.3-2.38 6.22 6.22 0 0 1 3.16-.84 5.1 5.1 0 0 1 2.89.67c.65.45 1.13.92 1.42 1.4h.5V6.11h3.48v16.35c0 .96-.28 1.71-.84 2.27-.56.58-1.3.87-2.24.87h-9.3v-3.08h8.07c.52 0 .78-.28.78-.84v-3.61h-.5a4.16 4.16 0 0 1-2.13 1.68c-.56.2-1.27.3-2.13.3-1.14 0-2.2-.26-3.16-.8a6.26 6.26 0 0 1-2.3-2.39 7.63 7.63 0 0 1-.87-3.75Zm7.34 3.87a3.8 3.8 0 0 0 2.72-1.04 3.86 3.86 0 0 0 1.09-2.91v-.28c0-1.27-.37-2.24-1.1-2.91a3.73 3.73 0 0 0-2.71-1.04 3.8 3.8 0 0 0-2.72 1.04c-.72.67-1.09 1.64-1.09 2.9v.29c0 1.25.37 2.22 1.1 2.91a3.8 3.8 0 0 0 2.71 1.04Z" fill="#000"/></svg>
